X:1
T: Captain Macdonald's Fancy
C:
R:Reel
Q: 232
K:F
M:4/4
L:1/8
|:CF AF CG BG|CF AF EF1/2G1/2 EC|CF AF CG BG|cA BG F1/2F1/2F F2|
CF AF CG BG|CF AF EF1/2G1/2 EC|CF AF CG BG|cA BG F1/2F1/2F F2|
fg1/2a1/2 fc dB cA|BG AF E1/2F1/2G EC|Fc Ac Fd Bd|cf eg f1/2f1/2f fg|
af ge fc dB|cA BG E1/2F1/2G EC|CF AF CG BG|cA BG F1/2F1/2F F2:|
